assets/img/alias/objktcom.svg

<svg width="410" height="125" viewBox="0 0 410 125" fill="none" xmlns="http://www.w3.org/2000/svg">
<rect width="410" height="125" fill="white"/>
<path d="M34.9 97.2C30.7 97.2 26.8667 96.2 23.4 94.2C19.9333 92.1333 17.1667 89.2333 15.1 85.5C13.0333 81.7667 12 77.4333 12 72.5C12 67.9 13.0333 63.7333 15.1 60C17.1667 56.2667 19.9333 53.3 23.4 51.1C26.8667 48.9 30.7 47.8 34.9 47.8C39.1 47.8 42.9333 48.9 46.4 51.1C49.9333 53.3 52.7333 56.2667 54.8 60C56.9333 63.7333 58 67.9 58 72.5C58 77.3667 56.9333 81.6667 54.8 85.4C52.7333 89.1333 49.9333 92.0333 46.4 94.1C42.9333 96.1667 39.1 97.2 34.9 97.2ZM34.9 86.1C37.5667 86.1 39.7667 84.8667 41.5 82.4C43.2333 79.8667 44.1 76.5667 44.1 72.5C44.1 68.1667 43.2333 64.8333 41.5 62.5C39.7667 60.1 37.5667 58.9 34.9 58.9C32.4333 58.9 30.3 60.1 28.5 62.5C26.7667 64.8333 25.9 68.1667 25.9 72.5C25.9 76.5667 26.7333 79.8667 28.4 82.4C30.1333 84.8667 32.3 86.1 34.9 86.1ZM88.7 97.2C86.5 97.2 84.3333 96.7333 82.2 95.8C80.0667 94.8667 78.2333 93.4333 76.7 91.5L75.2 96H64V28.5H79V29.6C78.6667 30 78.4333 30.4333 78.3 30.9C78.2333 31.3667 78.2 32.1667 78.2 33.3V53C79.5333 51.4 81.1667 50.1333 83.1 49.2C85.0333 48.2 87.1333 47.7333 89.4 47.8C95.1333 47.8667 99.7 49.9 103.1 53.9C106.5 57.8333 108.2 63.7 108.2 71.5C108.2 77.3667 107.333 82.2 105.6 86C103.867 89.8 101.533 92.6333 98.6 94.5C95.6667 96.3 92.3667 97.2 88.7 97.2ZM85.6 86.8C88.1333 86.8 90.2 85.7667 91.8 83.7C93.4667 81.5667 94.3 78 94.3 73C94.3 68.4667 93.6 64.8333 92.2 62.1C90.8 59.3 88.6667 57.9 85.8 57.9C83.3333 57.9 81.4667 59.1 80.2 61.5C79 63.9 78.3667 67.3667 78.3 71.9C78.2333 76.9667 78.8333 80.7333 80.1 83.2C81.4333 85.6 83.2667 86.8 85.6 86.8ZM128.9 113.7C125.567 113.7 122.567 113.033 119.9 111.7C117.3 110.433 114.867 108.567 112.6 106.1L120.2 96.1L120.8 95.4L121.7 96C121.833 96.5333 121.933 97.0667 122 97.6C122.133 98.2 122.533 98.9333 123.2 99.8C123.933 100.533 124.733 101.1 125.6 101.5C126.533 101.967 127.633 102.2 128.9 102.2C131.233 102.2 132.767 101.5 133.5 100.1C134.233 98.7667 134.6 96.7667 134.6 94.1V59.9H118.9V48.9H148.9V92.7C148.9 97.7 147.933 101.733 146 104.8C144.067 107.933 141.567 110.2 138.5 111.6C135.5 113 132.3 113.7 128.9 113.7ZM140.8 42.5C138.467 42.5 136.467 41.7333 134.8 40.2C133.2 38.6 132.4 36.7333 132.4 34.6C132.4 32.2667 133.167 30.3667 134.7 28.9C136.3 27.4333 138.333 26.7 140.8 26.7C143 26.7 144.933 27.5 146.6 29.1C148.333 30.6333 149.2 32.4667 149.2 34.6C149.2 36.7333 148.333 38.6 146.6 40.2C144.933 41.7333 143 42.5 140.8 42.5ZM180.8 76.1L178.5 78.5V96H164.3V28.5H179.3V29.6C178.967 30 178.733 30.4333 178.6 30.9C178.533 31.3667 178.5 32.1667 178.5 33.3V63L193 48.4C194.133 48.6667 195.533 48.8667 197.2 49C198.867 49.1333 200.033 49.2 200.7 49.2H208L190 67.4L210 95.9L194.8 96.4L180.8 76.1ZM239.9 97.2C236.567 97.2 233.633 96.5 231.1 95.1C228.567 93.7 226.633 91.2 225.3 87.6C223.967 84 223.433 78.9333 223.7 72.4L224.2 59.9H214.9L215.1 48.9H224.7L225.1 38.4L239.5 36.5L240.4 36.4L240.5 37.5C240.233 37.9667 239.967 38.4333 239.7 38.9C239.433 39.3667 239.267 40.1667 239.2 41.3L238.6 48.9H252.9L252.7 59.9H238.4L237.8 71.7C237.6 75.5 237.733 78.4667 238.2 80.6C238.733 82.6667 239.467 84.1 240.4 84.9C241.4 85.7 242.433 86.1 243.5 86.1C245.567 86.1 247.433 85.6667 249.1 84.8C250.833 83.9333 252.333 82.9667 253.6 81.9L256 91.8C253.733 93.4667 251.267 94.8 248.6 95.8C246 96.7333 243.1 97.2 239.9 97.2ZM276.73 96.84C275.283 96.84 274.023 96.3267 272.95 95.3C271.923 94.2733 271.41 93.0367 271.41 91.59C271.41 90.1433 271.923 88.9067 272.95 87.88C274.023 86.8533 275.283 86.34 276.73 86.34C278.177 86.34 279.413 86.8533 280.44 87.88C281.467 88.9067 281.98 90.1433 281.98 91.59C281.98 93.0367 281.467 94.2733 280.44 95.3C279.413 96.3267 278.177 96.84 276.73 96.84ZM314.46 96.84C311.287 96.84 308.44 96.1167 305.92 94.67C303.4 93.2233 301.393 91.24 299.9 88.72C298.453 86.1533 297.73 83.2367 297.73 79.97C297.73 76.75 298.453 73.8333 299.9 71.22C301.393 68.6067 303.4 66.53 305.92 64.99C308.44 63.45 311.31 62.68 314.53 62.68C317.517 62.68 320.13 63.24 322.37 64.36C324.61 65.48 326.383 67.02 327.69 68.98L323.28 73.81L322.86 74.3L322.3 73.88C322.3 73.46 322.253 73.0867 322.16 72.76C322.067 72.3867 321.763 71.8967 321.25 71.29C320.363 70.45 319.36 69.8667 318.24 69.54C317.167 69.2133 315.953 69.05 314.6 69.05C313.06 69.05 311.613 69.47 310.26 70.31C308.907 71.15 307.81 72.3867 306.97 74.02C306.177 75.6533 305.78 77.6367 305.78 79.97C305.78 82.07 306.2 83.9133 307.04 85.5C307.88 87.04 308.977 88.2533 310.33 89.14C311.73 89.98 313.223 90.4 314.81 90.4C316.257 90.4 317.68 90.0967 319.08 89.49C320.48 88.8833 321.787 87.8333 323 86.34L327.41 91.38C325.683 93.2933 323.677 94.6933 321.39 95.58C319.103 96.42 316.793 96.84 314.46 96.84ZM347.43 96.7C344.537 96.7 341.9 96 339.52 94.6C337.187 93.1533 335.343 91.17 333.99 88.65C332.637 86.0833 331.96 83.0967 331.96 79.69C331.96 76.47 332.637 73.5767 333.99 71.01C335.343 68.4433 337.187 66.4133 339.52 64.92C341.9 63.4267 344.537 62.68 347.43 62.68C350.37 62.68 353.007 63.4267 355.34 64.92C357.72 66.4133 359.587 68.4433 360.94 71.01C362.34 73.5767 363.04 76.47 363.04 79.69C363.04 83.05 362.34 86.0133 360.94 88.58C359.587 91.1467 357.72 93.1533 355.34 94.6C353.007 96 350.37 96.7 347.43 96.7ZM347.43 90.4C349.67 90.4 351.513 89.42 352.96 87.46C354.407 85.4533 355.13 82.8633 355.13 79.69C355.13 76.4233 354.407 73.8333 352.96 71.92C351.513 70.0067 349.67 69.05 347.43 69.05C345.283 69.05 343.487 70.0067 342.04 71.92C340.593 73.8333 339.87 76.4233 339.87 79.69C339.87 82.8633 340.57 85.4533 341.97 87.46C343.417 89.42 345.237 90.4 347.43 90.4ZM367.1 96V63.45H373.75V65.83C374.543 64.71 375.43 63.9167 376.41 63.45C377.39 62.9367 378.393 62.68 379.42 62.68C380.587 62.68 381.66 62.9833 382.64 63.59C383.667 64.1967 384.437 65.2 384.95 66.6C386.397 63.9867 388.683 62.68 391.81 62.68C394.19 62.68 395.893 63.52 396.92 65.2C397.993 66.8333 398.507 69.0967 398.46 71.99V96H391.6V73.67C391.6 71.57 391.437 70.17 391.11 69.47C390.783 68.7233 390.293 68.35 389.64 68.35C388.707 68.35 387.867 68.98 387.12 70.24C386.373 71.4533 386 73.0867 386 75.14V96H379.56V73.88C379.56 71.64 379.397 70.1467 379.07 69.4C378.743 68.6533 378.137 68.28 377.25 68.28C376.41 68.28 375.64 68.84 374.94 69.96C374.287 71.0333 373.96 72.62 373.96 74.72V96H367.1Z" fill="black"/>
</svg>

<svg width="410" height="125" fill="none" xmlns="http://www.w3.org/2000/svg"><path fill="#fff" d="M0 0h410v125H0z"/><path d="M34.9 97.2c-4.2 0-8.033-1-11.5-3-3.467-2.067-6.233-4.967-8.3-8.7-2.067-3.733-3.1-8.067-3.1-13 0-4.6 1.033-8.767 3.1-12.5 2.067-3.733 4.833-6.7 8.3-8.9 3.467-2.2 7.3-3.3 11.5-3.3s8.033 1.1 11.5 3.3c3.533 2.2 6.333 5.167 8.4 8.9 2.133 3.733 3.2 7.9 3.2 12.5 0 4.867-1.067 9.167-3.2 12.9-2.067 3.733-4.867 6.633-8.4 8.7-3.467 2.067-7.3 3.1-11.5 3.1Zm0-11.1c2.667 0 4.867-1.233 6.6-3.7 1.733-2.533 2.6-5.833 2.6-9.9 0-4.333-.867-7.667-2.6-10-1.733-2.4-3.933-3.6-6.6-3.6-2.467 0-4.6 1.2-6.4 3.6-1.733 2.333-2.6 5.667-2.6 10 0 4.067.833 7.367 2.5 9.9 1.733 2.467 3.9 3.7 6.5 3.7Zm53.8 11.1c-2.2 0-4.367-.467-6.5-1.4-2.133-.933-3.967-2.367-5.5-4.3L75.2 96H64V28.5h15v1.1c-.333.4-.567.833-.7 1.3-.067.467-.1 1.267-.1 2.4V53c1.333-1.6 2.967-2.867 4.9-3.8 1.933-1 4.033-1.467 6.3-1.4 5.733.067 10.3 2.1 13.7 6.1 3.4 3.933 5.1 9.8 5.1 17.6 0 5.867-.867 10.7-2.6 14.5-1.733 3.8-4.067 6.633-7 8.5-2.933 1.8-6.233 2.7-9.9 2.7Zm-3.1-10.4c2.533 0 4.6-1.033 6.2-3.1 1.667-2.133 2.5-5.7 2.5-10.7 0-4.533-.7-8.167-2.1-10.9-1.4-2.8-3.533-4.2-6.4-4.2-2.467 0-4.333 1.2-5.6 3.6-1.2 2.4-1.833 5.867-1.9 10.4-.067 5.067.533 8.833 1.8 11.3 1.333 2.4 3.167 3.6 5.5 3.6Zm43.3 26.9c-3.333 0-6.333-.667-9-2-2.6-1.267-5.033-3.133-7.3-5.6l7.6-10 .6-.7.9.6c.133.533.233 1.067.3 1.6.133.6.533 1.333 1.2 2.2a8.319 8.319 0 0 0 2.4 1.7c.933.467 2.033.7 3.3.7 2.333 0 3.867-.7 4.6-2.1.733-1.333 1.1-3.333 1.1-6V59.9h-15.7v-11h30v43.8c0 5-.967 9.033-2.9 12.1-1.933 3.133-4.433 5.4-7.5 6.8-3 1.4-6.2 2.1-9.6 2.1Zm11.9-71.2c-2.333 0-4.333-.767-6-2.3-1.6-1.6-2.4-3.467-2.4-5.6 0-2.333.767-4.233 2.3-5.7 1.6-1.467 3.633-2.2 6.1-2.2 2.2 0 4.133.8 5.8 2.4 1.733 1.533 2.6 3.367 2.6 5.5s-.867 4-2.6 5.6c-1.667 1.533-3.6 2.3-5.8 2.3Zm40 33.6-2.3 2.4V96h-14.2V28.5h15v1.1c-.333.4-.567.833-.7 1.3-.067.467-.1 1.267-.1 2.4V63L193 48.4c1.133.267 2.533.467 4.2.6 1.667.133 2.833.2 3.5.2h7.3l-18 18.2 20 28.5-15.2.5-14-20.3Zm59.1 21.1c-3.333 0-6.267-.7-8.8-2.1-2.533-1.4-4.467-3.9-5.8-7.5-1.333-3.6-1.867-8.667-1.6-15.2l.5-12.5h-9.3l.2-11h9.6l.4-10.5 14.4-1.9.9-.1.1 1.1-.8 1.4c-.267.467-.433 1.267-.5 2.4l-.6 7.6h14.3l-.2 11h-14.3l-.6 11.8c-.2 3.8-.067 6.767.4 8.9.533 2.067 1.267 3.5 2.2 4.3 1 .8 2.033 1.2 3.1 1.2 2.067 0 3.933-.433 5.6-1.3 1.733-.867 3.233-1.833 4.5-2.9l2.4 9.9a30.513 30.513 0 0 1-7.4 4c-2.6.933-5.5 1.4-8.7 1.4Zm36.83-.36c-1.447 0-2.707-.513-3.78-1.54-1.027-1.027-1.54-2.263-1.54-3.71s.513-2.683 1.54-3.71c1.073-1.027 2.333-1.54 3.78-1.54 1.447 0 2.683.513 3.71 1.54 1.027 1.027 1.54 2.263 1.54 3.71s-.513 2.683-1.54 3.71c-1.027 1.027-2.263 1.54-3.71 1.54Zm37.73 0c-3.173 0-6.02-.723-8.54-2.17-2.52-1.447-4.527-3.43-6.02-5.95-1.447-2.567-2.17-5.483-2.17-8.75 0-3.22.723-6.137 2.17-8.75 1.493-2.613 3.5-4.69 6.02-6.23 2.52-1.54 5.39-2.31 8.61-2.31 2.987 0 5.6.56 7.84 1.68 2.24 1.12 4.013 2.66 5.32 4.62l-4.41 4.83-.42.49-.56-.42c0-.42-.047-.793-.14-1.12-.093-.373-.397-.863-.91-1.47a7.309 7.309 0 0 0-3.01-1.75c-1.073-.327-2.287-.49-3.64-.49-1.54 0-2.987.42-4.34 1.26-1.353.84-2.45 2.077-3.29 3.71-.793 1.633-1.19 3.617-1.19 5.95 0 2.1.42 3.943 1.26 5.53.84 1.54 1.937 2.753 3.29 3.64 1.4.84 2.893 1.26 4.48 1.26 1.447 0 2.87-.303 4.27-.91 1.4-.607 2.707-1.657 3.92-3.15l4.41 5.04c-1.727 1.913-3.733 3.313-6.02 4.2-2.287.84-4.597 1.26-6.93 1.26Zm32.97-.14c-2.893 0-5.53-.7-7.91-2.1-2.333-1.447-4.177-3.43-5.53-5.95-1.353-2.567-2.03-5.553-2.03-8.96 0-3.22.677-6.113 2.03-8.68 1.353-2.567 3.197-4.597 5.53-6.09 2.38-1.493 5.017-2.24 7.91-2.24 2.94 0 5.577.747 7.91 2.24 2.38 1.493 4.247 3.523 5.6 6.09 1.4 2.567 2.1 5.46 2.1 8.68 0 3.36-.7 6.323-2.1 8.89-1.353 2.567-3.22 4.573-5.6 6.02-2.333 1.4-4.97 2.1-7.91 2.1Zm0-6.3c2.24 0 4.083-.98 5.53-2.94 1.447-2.007 2.17-4.597 2.17-7.77 0-3.267-.723-5.857-2.17-7.77-1.447-1.913-3.29-2.87-5.53-2.87-2.147 0-3.943.957-5.39 2.87-1.447 1.913-2.17 4.503-2.17 7.77 0 3.173.7 5.763 2.1 7.77 1.447 1.96 3.267 2.94 5.46 2.94ZM367.1 96V63.45h6.65v2.38c.793-1.12 1.68-1.913 2.66-2.38.98-.513 1.983-.77 3.01-.77a6 6 0 0 1 3.22.91c1.027.607 1.797 1.61 2.31 3.01 1.447-2.613 3.733-3.92 6.86-3.92 2.38 0 4.083.84 5.11 2.52 1.073 1.633 1.587 3.897 1.54 6.79V96h-6.86V73.67c0-2.1-.163-3.5-.49-4.2-.327-.747-.817-1.12-1.47-1.12-.933 0-1.773.63-2.52 1.89-.747 1.213-1.12 2.847-1.12 4.9V96h-6.44V73.88c0-2.24-.163-3.733-.49-4.48-.327-.747-.933-1.12-1.82-1.12-.84 0-1.61.56-2.31 1.68-.653 1.073-.98 2.66-.98 4.76V96h-6.86Z" fill="#000"/></svg>
